src/Components/ButtonsBar/images/delete.svg

<svg xmlns="http://www.w3.org/2000/svg" width="24" height="24" fill="none"><path fill="#fff" d="M6 19c0 1.1.9 2 2 2h8c1.1 0 2-.9 2-2V9c0-1.1-.9-2-2-2H8c-1.1 0-2 .9-2 2v10ZM18 4h-2.5l-.71-.71c-.18-.18-.44-.29-.7-.29H9.91c-.26 0-.52.11-.7.29L8.5 4H6c-.55 0-1 .45-1 1s.45 1 1 1h12c.55 0 1-.45 1-1s-.45-1-1-1Z"/></svg>

<svg width="24" height="24" viewBox="0 0 24 24" fill="none" xmlns="http://www.w3.org/2000/svg">
<path d="M6 19C6 20.1 6.9 21 8 21H16C17.1 21 18 20.1 18 19V9C18 7.9 17.1 7 16 7H8C6.9 7 6 7.9 6 9V19ZM18 4H15.5L14.79 3.29C14.61 3.11 14.35 3 14.09 3H9.91C9.65 3 9.39 3.11 9.21 3.29L8.5 4H6C5.45 4 5 4.45 5 5C5 5.55 5.45 6 6 6H18C18.55 6 19 5.55 19 5C19 4.45 18.55 4 18 4Z" fill="white"/>
</svg>
